site/img/logos/panel.svg

<?xml version="1.0" encoding="UTF-8"?>
<svg width="400px" height="360px" viewBox="0 0 400 360" version="1.1" xmlns="http://www.w3.org/2000/svg" xmlns:xlink="http://www.w3.org/1999/xlink">
    <title>logos/panel</title>
    <g id="logos/panel" stroke="none" stroke-width="1" fill="none" fill-rule="evenodd">
        <path d="M17.0040486,243.050433 C26.3856025,243.050433 34.0080972,250.472335 34.0080972,259.649623 C34.0080972,268.82691 26.3856025,276.248813 17.0040486,276.248813 C7.62249466,276.248813 -5.68434189e-14,268.82691 -5.68434189e-14,259.649623 C-5.68434189e-14,250.472335 7.62249466,243.050433 17.0040486,243.050433 Z M17.0040486,246.289299 C9.39222559,246.289299 3.2388664,252.280727 3.2388664,259.649623 C3.2388664,267.018518 9.39222559,273.009947 17.0040486,273.009947 C24.6158716,273.009947 30.7692308,267.018518 30.7692308,259.649623 C30.7692308,252.280727 24.6158716,246.289299 17.0040486,246.289299 Z M32.7935223,105.398611 C42.0431536,105.398611 49.6828355,112.291624 50.8559762,121.221056 C55.2013212,120.251165 59.7256887,119.739118 64.3724696,119.739118 C97.6789093,119.739118 124.696356,146.045579 124.696356,178.518151 C124.696356,203.294242 108.968246,224.480755 86.7189644,233.131967 C87.1953789,234.873282 87.4493927,236.705855 87.4493927,238.596991 C87.4493927,250.231598 77.8351587,259.649623 65.9919028,259.649623 C54.148647,259.649623 44.534413,250.231598 44.534413,238.596991 C44.534413,237.088791 44.6959713,235.617838 45.0030006,234.19982 C21.1923236,226.339636 4.048583,204.385225 4.048583,178.518151 C4.048583,162.598088 10.5424067,148.160091 21.0874607,137.577452 C17.1059371,134.235914 14.5748988,129.222152 14.5748988,123.617234 C14.5748988,113.555366 22.7316543,105.398611 32.7935223,105.398611 Z M83.6583206,234.227843 L83.4358267,234.301531 C77.4434858,236.244925 71.0337576,237.297183 64.3724696,237.297183 C58.7405735,237.297183 53.2884956,236.545014 48.1164543,235.138051 C47.8913727,236.256943 47.7732794,237.41358 47.7732794,238.596991 C47.7732794,248.427703 55.9226463,256.410756 65.9919028,256.410756 C76.0611594,256.410756 84.2105263,248.427703 84.2105263,238.596991 C84.2105263,237.089809 84.0189749,235.626057 83.6583206,234.227843 Z M13.7651822,220.378368 C19.5691831,220.378368 24.291498,224.976412 24.291498,230.670292 C24.291498,236.364173 19.5691831,240.962216 13.7651822,240.962216 C7.9611813,240.962216 3.2388664,236.364173 3.2388664,230.670292 C3.2388664,224.976412 7.9611813,220.378368 13.7651822,220.378368 Z M13.7651822,223.617234 C9.73091223,223.617234 6.47773279,226.784803 6.47773279,230.670292 C6.47773279,234.55578 9.73091223,237.72335 13.7651822,237.72335 C17.7994521,237.72335 21.0526316,234.55578 21.0526316,230.670292 C21.0526316,226.784803 17.7994521,223.617234 13.7651822,223.617234 Z M65.9919028,220.783226 C58.2961589,220.783226 51.721872,225.446334 49.0501078,232.033485 C53.9258402,233.353571 59.0643281,234.058317 64.3724696,234.058317 C70.732222,234.058317 76.8484411,233.046672 82.5607142,231.179923 C79.6832421,225.046365 73.3502057,220.783226 65.9919028,220.783226 Z M64.3724696,122.977984 C59.7633029,122.977984 55.2820515,123.509348 50.9897794,124.512488 C50.5228066,134.159451 42.5546249,141.835858 32.7935223,141.835858 C29.5189321,141.835858 26.4461217,140.971936 23.7905819,139.459586 C13.5863069,149.49354 7.28744939,163.292315 7.28744939,178.518151 C7.28744939,202.90862 23.4511143,223.637071 45.9353103,231.097953 C49.0173304,223.169604 56.838936,217.54436 65.9919028,217.54436 C74.7494756,217.54436 82.2882283,222.694097 85.6220842,230.081801 C106.629784,221.880353 121.45749,201.878924 121.45749,178.518151 C121.45749,147.853972 95.9091789,122.977984 64.3724696,122.977984 Z M47.6687551,125.39613 L47.1792504,125.541131 C39.3620521,127.940304 32.2721704,131.931989 26.3109096,137.124567 C28.2732866,138.068762 30.4717172,138.596991 32.7935223,138.596991 C40.4646967,138.596991 46.7890874,132.830725 47.6687551,125.39613 Z M32.7935223,108.637477 C24.5204309,108.637477 17.8137652,115.344143 17.8137652,123.617234 C17.8137652,128.358445 20.0164355,132.585194 23.4542835,135.32999 C30.2656196,129.198477 38.5307166,124.579316 47.6876652,122.016572 C46.8907434,114.496881 40.5264014,108.637477 32.7935223,108.637477 Z M16.194332,74.6293799 C22.9022439,74.6293799 28.340081,80.0672172 28.340081,86.7751289 C28.340081,93.4830407 22.9022439,98.9208779 16.194332,98.9208779 C9.48642008,98.9208779 4.048583,93.4830407 4.048583,86.7751289 C4.048583,80.0672172 9.48642008,74.6293799 16.194332,74.6293799 Z M16.194332,77.8682463 C11.2751966,77.8682463 7.28744939,81.8559937 7.28744939,86.7751289 C7.28744939,91.6942641 11.2751966,95.6820115 16.194332,95.6820115 C21.1134674,95.6820115 25.1012146,91.6942641 25.1012146,86.7751289 C25.1012146,81.8559937 21.1134674,77.8682463 16.194332,77.8682463 Z" id="Shape" fill-opacity="0.6" fill="#FFFFFF" fill-rule="nonzero"></path>
        <path d="M181.608995,219.120302 C190.083426,219.120302 197.557299,223.687881 197.727993,229.647322 L197.730975,229.855769 L197.730975,250.312973 C197.730975,256.729658 190.583318,260.454697 181.915539,260.540458 L181.608995,260.541972 L150.880972,260.541931 L150.881674,268.059526 C150.881674,270.459105 148.983876,272.415429 146.607347,272.509431 L146.428232,272.512967 C144.028654,272.512967 142.07233,270.615169 141.978327,268.238641 L141.974791,268.059526 L141.974791,229.855769 C141.974791,222.924747 148.685291,219.207326 157.701302,219.121812 L158.020464,219.120302 L181.608995,219.120302 Z M310.771049,219.120302 C316.549687,219.120302 323.673318,223.743167 323.852737,230.051568 L323.856196,230.295024 L323.856196,256.815615 C323.856196,259.275182 321.862322,261.269056 319.402755,261.269056 C317.003177,261.269056 315.046853,259.371258 314.95285,256.99473 L314.949313,256.815615 L314.949313,230.295024 C314.949313,230.318348 314.936811,230.283193 314.834738,230.140239 C314.621041,229.840958 314.238093,229.490592 313.725075,229.154216 C312.74841,228.513836 311.51139,228.080538 310.881772,228.031778 L310.771049,228.027185 L282.276379,228.027185 C278.837447,228.027185 277.517919,228.82002 277.455598,230.191111 L277.453267,230.295024 L277.453267,256.815615 C277.453267,259.275182 275.459394,261.269056 272.999826,261.269056 C270.600248,261.269056 268.643924,259.371258 268.549921,256.99473 L268.546385,256.815615 L268.546385,230.295024 C268.546385,222.993106 274.295365,219.214224 281.987038,219.122031 L282.276379,219.120302 L310.771049,219.120302 Z M246.151079,219.120302 C249.134594,219.120302 252.54604,219.699607 255.400193,220.967325 C259.779037,222.912259 262.644556,226.376378 262.755246,231.199599 L262.758572,231.490621 L262.758572,249.84881 C262.758572,254.165868 260.199825,257.309858 256.332066,259.139097 C253.971389,260.255568 251.119743,260.857782 248.734822,260.91808 L248.34182,260.923108 L218.764233,260.923108 C216.355422,260.923108 212.984064,259.978399 210.213279,258.553926 C206.356286,256.571029 203.722483,253.851714 203.60733,250.105807 L203.603397,249.84881 L203.603397,241.965539 C203.603397,237.931127 206.117704,234.920376 209.897022,233.062096 C212.430643,231.816322 215.555688,231.10639 218.347998,231.041603 L218.764233,231.036737 L253.787854,231.036667 C253.310231,229.348672 250.231396,228.08322 246.407115,228.028997 L246.151079,228.027185 L236.805336,228.027185 C234.345768,228.027185 232.351895,226.033311 232.351895,223.573743 C232.351895,221.174165 234.249692,219.217841 236.626221,219.123838 L236.805336,219.120302 L246.151079,219.120302 Z M369.90527,219.120302 C372.314081,219.120302 375.685439,220.065012 378.456223,221.489484 C382.313217,223.472382 384.947019,226.191697 385.062172,229.937603 L385.066106,230.1946 L385.066106,244.960696 L338.057199,244.95816 L338.05668,245.109517 C338.05668,249.616 340.654514,251.932705 345.49125,252.014007 L345.757291,252.016225 L355.103033,252.016225 C357.562601,252.016225 359.556474,254.010099 359.556474,256.469667 C359.556474,258.869245 357.658677,260.825569 355.282148,260.919572 L355.103033,260.923108 L345.757291,260.923108 C336.202972,260.923108 329.294937,255.062297 329.152056,245.415412 L329.149798,245.109517 L329.149798,231.814033 C329.149798,227.730037 331.46346,224.388192 335.017687,222.029327 C337.5859,220.324858 340.766973,219.208657 343.269576,219.125317 L343.566548,219.120302 L369.90527,219.120302 Z M395.546559,208.232619 C397.946137,208.232619 399.902461,210.130416 399.996464,212.506945 L400,212.68606 L400,256.410756 C400,258.870324 398.006126,260.864198 395.546559,260.864198 C393.146981,260.864198 391.190657,258.9664 391.096653,256.589871 L391.093117,256.410756 L391.093117,212.68606 C391.093117,210.226492 393.086991,208.232619 395.546559,208.232619 Z M253.851012,239.94355 L218.764233,239.94355 C217.189208,239.94355 215.220336,240.369983 213.827121,241.055023 C212.843206,241.538811 212.541677,241.86333 212.512662,241.952814 L212.510121,241.965539 L212.510121,249.414805 L212.51924,249.425088 C212.831313,249.752735 213.370983,250.140757 214.070955,250.519339 L214.285689,250.63256 C215.804671,251.413476 217.712713,251.964288 218.638768,252.012749 L218.764233,252.016225 L248.34182,252.016225 C251.072884,252.016225 253.712809,250.800804 253.846394,249.917802 L253.851689,249.84881 L253.851012,239.94355 Z M181.608995,228.027185 L158.020464,228.027185 C155.237606,228.027185 153.031733,228.479856 151.704874,229.198961 L151.466522,229.33279 C151.006074,229.602067 150.896462,229.741235 150.883151,229.834918 L150.881674,229.855769 L150.880972,251.635089 L181.608995,251.635089 C184.128476,251.635089 186.305814,251.201999 187.779091,250.508633 L187.98473,250.407829 C188.32484,250.234129 188.583738,250.06504 188.759537,249.921166 L188.823482,249.865817 L188.823482,230.367032 L188.74592,230.281407 C188.561832,230.088009 188.299267,229.869774 187.966598,229.649502 L187.794459,229.539301 C186.367315,228.6556 184.335109,228.08119 181.951825,228.030796 L181.608995,228.027185 Z M369.90527,228.027185 L343.566548,228.027185 C342.896411,228.027185 341.233541,228.593998 339.942974,229.450519 C338.709635,230.269061 338.11726,231.07654 338.061106,231.714701 L338.05668,231.814033 L338.057199,236.051277 L376.160033,236.053706 L376.160033,230.629415 L376.150263,230.618322 C375.83819,230.290675 375.29852,229.902653 374.598547,229.524071 L374.383814,229.41085 C372.864832,228.629934 370.95679,228.079122 370.030735,228.030661 L369.90527,228.027185 Z" id="Shape" fill="#FFFFFF" fill-rule="nonzero"></path>
    </g>
</svg>

<svg width="400" height="360" viewBox="0 0 400 360" xmlns="http://www.w3.org/2000/svg"><g fill="#FFF"><path d="M17.004 243.05c9.382 0 17.004 7.422 17.004 16.6 0 9.177-7.622 16.599-17.004 16.599-9.382 0-17.004-7.422-17.004-16.6 0-9.177 7.622-16.599 17.004-16.599zm0 3.24c-7.612 0-13.765 5.99-13.765 13.36 0 7.369 6.153 13.36 13.765 13.36 7.612 0 13.765-5.991 13.765-13.36 0-7.37-6.153-13.36-13.765-13.36zm15.79-140.891c9.25 0 16.889 6.893 18.062 15.822a61.998 61.998 0 0113.516-1.482c33.307 0 60.324 26.307 60.324 58.78 0 24.775-15.728 45.962-37.977 54.613.476 1.741.73 3.574.73 5.465 0 11.635-9.614 21.053-21.457 21.053s-21.458-9.418-21.458-21.053c0-1.508.162-2.98.469-4.397-23.81-7.86-40.954-29.815-40.954-55.682 0-15.92 6.493-30.358 17.038-40.94a18.178 18.178 0 01-6.512-13.96c0-10.063 8.157-18.22 18.219-18.22zm50.864 128.829l-.222.074a61.706 61.706 0 01-19.064 2.995 61.86 61.86 0 01-16.256-2.159 17.525 17.525 0 00-.343 3.459c0 9.83 8.15 17.814 18.219 17.814 10.07 0 18.219-7.983 18.219-17.814 0-1.507-.192-2.97-.553-4.37zm-69.893-13.85c5.804 0 10.526 4.598 10.526 10.292s-4.722 10.292-10.526 10.292c-5.804 0-10.526-4.598-10.526-10.292s4.722-10.292 10.526-10.292zm0 3.24c-4.034 0-7.287 3.167-7.287 7.052 0 3.886 3.253 7.053 7.287 7.053s7.288-3.167 7.288-7.053c0-3.885-3.254-7.053-7.288-7.053zm52.227-2.835c-7.696 0-14.27 4.663-16.942 11.25a58.565 58.565 0 0015.322 2.025c6.36 0 12.476-1.011 18.189-2.878-2.878-6.134-9.21-10.397-16.57-10.397zm-1.62-97.805c-4.609 0-9.09.531-13.382 1.534-.467 9.647-8.435 17.324-18.196 17.324-3.275 0-6.348-.864-9.003-2.376-10.205 10.034-16.504 23.832-16.504 39.058 0 24.39 16.164 45.12 38.648 52.58 3.082-7.928 10.904-13.554 20.057-13.554 8.757 0 16.296 5.15 19.63 12.538 21.008-8.202 35.835-28.203 35.835-51.564 0-30.664-25.548-55.54-57.085-55.54zm-16.703 2.418l-.49.145a57.423 57.423 0 00-20.868 11.584 14.91 14.91 0 006.483 1.472c7.67 0 13.995-5.766 14.875-13.2zm-14.875-16.759c-8.274 0-14.98 6.707-14.98 14.98 0 4.741 2.202 8.968 5.64 11.713a60.652 60.652 0 0124.234-13.313c-.797-7.52-7.162-13.38-14.894-13.38zm-16.6-34.008c6.708 0 12.146 5.438 12.146 12.146 0 6.708-5.438 12.146-12.146 12.146-6.708 0-12.145-5.438-12.145-12.146 0-6.708 5.437-12.146 12.145-12.146zm0 3.24a8.907 8.907 0 100 17.813 8.907 8.907 0 000-17.814z" fill-opacity=".6"/><path d="M181.609 219.12c8.474 0 15.948 4.568 16.119 10.527l.003.209v20.457c0 6.417-7.148 10.142-15.815 10.227l-.307.002h-30.728v7.518c0 2.4-1.897 4.355-4.274 4.45l-.179.003a4.454 4.454 0 01-4.45-4.274l-.003-.18v-38.203c0-6.931 6.71-10.649 15.726-10.734l.32-.002h23.588zm129.162 0c5.779 0 12.902 4.623 13.082 10.932l.003.243v26.52a4.453 4.453 0 01-8.903.18l-.004-.18v-26.52c0 .023-.012-.012-.114-.155-.214-.299-.597-.65-1.11-.986-.977-.64-2.214-1.073-2.843-1.122l-.111-.005h-28.495c-3.439 0-4.758.793-4.82 2.164l-.003.104v26.52a4.453 4.453 0 01-8.903.18l-.004-.18v-26.52c0-7.302 5.75-11.08 13.441-11.173l.29-.002h28.494zm-64.62 0c2.984 0 6.395.58 9.25 1.847 4.378 1.945 7.244 5.41 7.354 10.233l.004.29v18.359c0 4.317-2.56 7.46-6.427 9.29-2.36 1.117-5.212 1.719-7.597 1.78l-.393.004h-29.578c-2.409 0-5.78-.945-8.55-2.37-3.858-1.982-6.492-4.701-6.607-8.447l-.004-.257v-7.883c0-4.035 2.515-7.046 6.294-8.904 2.534-1.246 5.659-1.956 8.451-2.02l.416-.005h35.024c-.478-1.688-3.557-2.954-7.38-3.008l-.257-.002h-9.346a4.453 4.453 0 01-.179-8.903l.18-.004h9.345zm123.754 0c2.41 0 5.78.945 8.551 2.37 3.857 1.982 6.491 4.702 6.606 8.448l.004.257v14.766l-47.009-.003v.152c0 4.506 2.598 6.823 7.434 6.904l.266.002h9.346a4.453 4.453 0 01.18 8.904l-.18.003h-9.346c-9.554 0-16.462-5.86-16.605-15.508l-.002-.305v-13.296c0-4.084 2.313-7.426 5.868-9.785 2.568-1.704 5.749-2.82 8.252-2.904l.297-.005h26.338zm25.642-10.887c2.4 0 4.355 1.897 4.45 4.274l.003.18v43.724a4.453 4.453 0 01-8.903.179l-.004-.18v-43.724a4.453 4.453 0 014.454-4.453zm-141.696 31.71h-35.087c-1.575 0-3.544.427-4.937 1.112-.984.484-1.285.808-1.314.898l-.003.013v7.449l.01.01c.311.328.851.716 1.551 1.094l.215.114c1.519.78 3.427 1.331 4.353 1.38l.125.003h29.578c2.73 0 5.37-1.215 5.504-2.098l.006-.07-.001-9.904zm-72.242-11.916H158.02c-2.782 0-4.988.453-6.315 1.172l-.238.134c-.46.27-.57.408-.584.502l-.001.02-.001 21.78h30.728c2.52 0 4.697-.433 6.17-1.126l.206-.101a4.43 4.43 0 00.775-.487l.063-.055v-19.499l-.077-.086a4.584 4.584 0 00-.78-.631l-.172-.11c-1.427-.884-3.459-1.459-5.842-1.51l-.343-.003zm188.296 0h-26.338c-.67 0-2.333.567-3.624 1.424-1.233.818-1.826 1.626-1.882 2.264l-.004.099v4.237l38.103.003v-5.425l-.01-.01c-.312-.328-.851-.716-1.551-1.095l-.215-.113c-1.52-.781-3.427-1.332-4.353-1.38l-.126-.004z"/></g></svg>
